X: 46
T:Step and Fetch Her (Bampton) (Schofield)
M:4/4
L:1/8
O:England; Oxfordshire; Bampton.
B:Lionel Bacon, A Handbook of Morris Dances
Z:http://www.themorrisring.org/music/handbook-morris-dances
P:A(ABA)3
K:G
P:A
  G3 G  A2B2|G2G2 A2B2|  G3 A  B2e2|dcBA G4  |
  G4    A2B2|G2G2 A2B2|  G2A2  B2e2|dcBA G4  ||
P:B
(3gage2 d3 B|c2d2 e2f2|(3gage2 d3 B|B3 c A2A2|
  g3 e  d2B2|c2d2 e2f2|  g2A2  A2B2|A2G2 G4  ||

